T: Whiskey, The
M: 6/8
L: 1/8
K: Gmaj
| A3 AFD | ~ | A3 AGA | ~ | ABA AGA | ~ |  ABA A2 G |  ~ | A2 A AF/E/D |~ and bar 4 of the C part: | d3 dfa| ~ | dfe dfa |
